storage/app/icons/phosphoricons/light/chart-bar-horizontal-light.svg

<svg xmlns="http://www.w3.org/2000/svg" fill="currentColor" viewBox="0 0 256 256"><path d="M224 98h-42V56a6 6 0 0 0-6-6H54V40a6 6 0 0 0-12 0v176a6 6 0 0 0 12 0v-10h90a6 6 0 0 0 6-6v-42h74a6 6 0 0 0 6-6v-48a6 6 0 0 0-6-6m-54-36v36H54V62Zm-32 132H54v-36h84Zm80-48H54v-36h164Z"/></svg>

<svg xmlns="http://www.w3.org/2000/svg" viewBox="0 0 256 256" fill="currentColor"><path d="M224,98H182V56a6,6,0,0,0-6-6H54V40a6,6,0,0,0-12,0V216a6,6,0,0,0,12,0V206h90a6,6,0,0,0,6-6V158h74a6,6,0,0,0,6-6V104A6,6,0,0,0,224,98ZM170,62V98H54V62ZM138,194H54V158h84Zm80-48H54V110H218Z"/></svg>
